webapp/bundle/assets/img/good-web-bundle-logo.svg

<?xml version="1.0" encoding="utf-8"?>
<!-- Generator: Adobe Illustrator 15.1.0, SVG Export Plug-In . SVG Version: 6.00 Build 0)  -->
<!DOCTYPE svg PUBLIC "-//W3C//DTD SVG 1.1//EN" "http://www.w3.org/Graphics/SVG/1.1/DTD/svg11.dtd">
<svg version="1.1" id="Layer_1" xmlns="http://www.w3.org/2000/svg" xmlns:xlink="http://www.w3.org/1999/xlink" x="0px" y="0px"
	 width="170px" height="195px" viewBox="0 0 170 195" enable-background="new 0 0 170 195" xml:space="preserve">
<g>
	<path fill="#EE2249" d="M162.124,50.75h-70.95v32.41h70.95c3.707,0,6.741-3.046,6.741-6.767V57.516
		C168.865,53.796,165.831,50.75,162.124,50.75z"/>
	<path fill="#EE2249" d="M6.741,83.159h70.95V50.749H6.741C3.033,50.749,0,53.794,0,57.516v18.876
		C0,80.113,3.033,83.159,6.741,83.159z"/>
	<path fill="#EE2249" d="M162.124,159.661h-70.95v32.411h70.95c3.707,0,6.741-3.046,6.741-6.768v-18.877
		C168.865,162.707,165.831,159.661,162.124,159.661z"/>
	<path fill="#EE2249" d="M0,166.428v18.877c0,3.722,3.033,6.768,6.741,6.768h70.95v-32.411H6.741C3.033,159.661,0,162.707,0,166.428
		z"/>
	<path fill="#EE2249" d="M57.357,39.646c8.352,3.206,17.95,5.043,26.332,5.043v-3.398l0.008-0.004l0.006,0.004v3.398
		c8.384,0,17.98-1.837,26.332-5.043c6.848-2.631,15.769-7.319,19.361-14.708c2.674-5.501,1.84-11.471-2.348-16.803
		c-4.043-5.146-9.71-7.144-15.956-5.65c-10.626,2.55-21.255,14.801-27.397,25.619C77.553,17.288,66.923,5.033,56.297,2.486
		c-6.247-1.504-11.914,0.508-15.952,5.65c-4.189,5.332-5.022,11.301-2.348,16.802C41.588,32.327,50.508,37.015,57.357,39.646z
		 M98.2,25.026c5.333-6.8,11.055-11.471,15.303-12.491c0.551-0.131,1.058-0.198,1.535-0.198c1.516,0,2.706,0.69,3.88,2.184
		c2.202,2.803,1.832,4.557,1.18,5.899c-2.771,5.7-15.14,11.315-27.687,13.237C93.911,30.982,95.849,28.02,98.2,25.026z
		 M48.474,14.521c1.173-1.494,2.362-2.184,3.881-2.184c0.474,0,0.982,0.067,1.532,0.198c4.249,1.02,9.97,5.687,15.304,12.487
		c2.352,2.998,4.287,5.959,5.788,8.634c-12.546-1.924-24.914-7.538-27.684-13.236C46.641,19.078,46.27,17.324,48.474,14.521z"/>
	<path fill="#FFFFFF" d="M26.675,128.791c0-3.182-0.999-5.718-2.996-7.605c-1.997-1.889-4.836-2.833-8.516-2.833H0.187v36.094h15.72
		c3.317,0,6.024-0.933,8.12-2.8c2.096-1.864,3.144-4.466,3.144-7.803c0-1.19-0.153-2.257-0.458-3.199
		c-0.306-0.943-0.727-1.728-1.263-2.357c-0.536-0.628-0.99-1.092-1.362-1.389c-0.371-0.298-0.829-0.611-1.374-0.943
		C25.354,134.163,26.675,131.776,26.675,128.791z M9.049,126.249h5.552c1.128,0,1.946,0.294,2.452,0.882
		c0.506,0.587,0.76,1.292,0.76,2.113c0,0.823-0.254,1.527-0.76,2.114c-0.506,0.588-1.324,0.882-2.452,0.882H9.049V126.249z
		 M17.526,145.609c-0.521,0.626-1.345,0.938-2.47,0.938H9.049v-6.411h6.007c1.109,0,1.928,0.31,2.458,0.927
		c0.529,0.617,0.794,1.373,0.794,2.266C18.308,144.224,18.047,144.983,17.526,145.609z"/>
	<path fill="#FFFFFF" d="M28.635,118.353v23.418c0,3.846,1.308,6.969,3.924,9.371c2.615,2.4,5.85,3.601,9.703,3.601
		s7.104-1.2,9.754-3.601c2.65-2.402,3.975-5.524,3.975-9.371v-23.418h-8.863v23.221c0,1.65-0.438,2.942-1.312,3.874
		c-0.875,0.933-2.054,1.399-3.54,1.399c-1.485,0-2.652-0.467-3.502-1.399c-0.85-0.932-1.275-2.224-1.275-3.874v-23.221H28.635
		L28.635,118.353z"/>
	<polygon fill="#FFFFFF" points="77.953,136.498 66.37,118.353 58.618,118.353 58.618,154.446 67.481,154.446 67.481,136.299 
		79.066,154.446 86.814,154.446 86.814,118.353 77.953,118.353 	"/>
	<path fill="#FFFFFF" d="M113.141,150.905c0.479-0.478,0.895-0.944,1.249-1.398s0.659-0.953,0.914-1.497
		c0.255-0.545,0.482-1.028,0.679-1.448c0.197-0.422,0.35-0.961,0.457-1.622c0.106-0.66,0.201-1.167,0.284-1.522
		c0.082-0.354,0.131-0.924,0.147-1.708c0.017-0.783,0.025-1.333,0.025-1.646v-1.831v-1.833v-2.029v-2.104
		c0-0.215-0.025-0.805-0.075-1.77c-0.049-0.967-0.127-1.618-0.233-1.957c-0.107-0.338-0.252-0.886-0.433-1.646
		c-0.182-0.759-0.399-1.358-0.656-1.795c-0.255-0.438-0.585-0.954-0.989-1.548c-0.403-0.594-0.86-1.146-1.372-1.658
		c-2.357-2.359-5.598-3.54-9.721-3.54H90.035v36.095h13.384C107.541,154.446,110.782,153.266,113.141,150.905z M98.899,146.548
		v-20.299h3.923c1.936,0,3.358,0.677,4.27,2.03c0.362,0.546,0.611,1.309,0.744,2.29c0.132,0.982,0.199,2.925,0.199,5.829
		c0,2.905-0.062,4.849-0.188,5.831c-0.124,0.982-0.376,1.744-0.756,2.289c-0.911,1.354-2.335,2.029-4.271,2.029H98.899
		L98.899,146.548z"/>
	<polygon fill="#FFFFFF" points="118.979,118.353 118.979,154.446 143.018,154.446 143.018,146.548 127.842,146.548 
		127.842,118.353 	"/>
	<polygon fill="#FFFFFF" points="144.11,154.446 168.668,154.446 168.668,146.548 152.974,146.548 152.974,140.212 166.392,140.212 
		166.392,132.313 152.974,132.313 152.974,126.249 168.668,126.249 168.668,118.353 144.11,118.353 	"/>
	<path fill="#FFFFFF" d="M64.738,110.088c0.393-0.758,0.685-1.422,0.877-1.993c0.192-0.57,0.336-1.402,0.429-2.491
		c0.093-1.089,0.139-1.86,0.139-2.312v-2.672v-2.669c0-0.453-0.046-1.224-0.139-2.312c-0.093-1.09-0.236-1.921-0.429-2.492
		c-0.192-0.571-0.484-1.239-0.877-2.003c-0.392-0.763-0.887-1.445-1.484-2.042c-2.18-2.166-4.887-3.252-8.122-3.259
		c-3.235-0.007-5.942,1.079-8.122,3.259c-0.598,0.598-1.096,1.279-1.495,2.042c-0.398,0.764-0.691,1.432-0.876,2.003
		c-0.184,0.562-0.324,1.377-0.423,2.44c-0.093-1.063-0.234-1.878-0.424-2.44c-0.192-0.571-0.485-1.239-0.877-2.003
		c-0.392-0.763-0.887-1.445-1.484-2.042c-2.18-2.166-4.887-3.252-8.123-3.259c-3.235-0.007-5.942,1.079-8.121,3.259
		c-0.598,0.598-1.096,1.279-1.494,2.042c-0.399,0.764-0.691,1.432-0.877,2.003c-0.161,0.495-0.288,1.198-0.384,2.084
		c-0.442-2.613-1.555-4.818-3.352-6.608c-1.853-1.847-4.507-2.771-7.962-2.771c-3.201-0.013-5.887,1.069-8.06,3.249
		c-0.597,0.598-1.093,1.279-1.491,2.042c-0.397,0.764-0.689,1.433-0.875,2.003c-0.186,0.571-0.328,1.401-0.427,2.492
		c-0.099,1.089-0.149,1.86-0.149,2.312v2.67v2.671c0,0.452,0.049,1.223,0.149,2.312c0.1,1.089,0.242,1.92,0.427,2.49
		c0.186,0.572,0.477,1.236,0.875,1.994c0.397,0.757,0.895,1.435,1.491,2.033c2.159,2.179,4.846,3.268,8.06,3.268
		c3.534,0,6.351-1.089,8.451-3.268c1.089-1.116,1.854-2.408,2.292-3.877c0.236-0.789,0.406-1.717,0.516-2.772
		c0.003,0.044,0.008,0.085,0.011,0.132c0.1,1.089,0.242,1.92,0.427,2.492c0.186,0.571,0.477,1.234,0.875,1.992
		c0.397,0.757,0.895,1.435,1.491,2.033c2.173,2.179,4.88,3.268,8.121,3.268s5.952-1.089,8.131-3.268
		c0.597-0.599,1.092-1.276,1.484-2.033c0.393-0.758,0.685-1.421,0.877-1.992c0.189-0.562,0.331-1.377,0.423-2.438
		c0.099,1.062,0.239,1.876,0.421,2.438c0.186,0.571,0.477,1.234,0.875,1.992c0.397,0.757,0.895,1.435,1.491,2.033
		c2.173,2.179,4.88,3.268,8.121,3.268s5.951-1.089,8.13-3.268C63.852,111.522,64.347,110.846,64.738,110.088z M11.118,98.41v6.038
		h4.285v0.411c0,1.307-0.366,2.318-1.096,3.036c-0.717,0.759-1.781,1.137-3.189,1.137c-1.249-0.014-2.186-0.419-2.81-1.216
		c-0.386-0.482-0.658-1.179-0.817-2.086c-0.159-0.908-0.239-2.599-0.239-5.068c0-2.471,0.08-4.163,0.239-5.073
		c0.16-0.91,0.431-1.611,0.817-2.102c0.651-0.85,1.587-1.276,2.81-1.276c1.196,0,2.113,0.259,2.75,0.777
		c0.638,0.519,1.109,1.348,1.415,2.491h7.122c-0.005,0.055-0.012,0.103-0.017,0.16c-0.099,1.089-0.149,1.86-0.149,2.312v0.459
		H11.118z M36.986,105.634c-0.161,0.896-0.434,1.591-0.82,2.083c-0.653,0.877-1.608,1.315-2.867,1.315
		c-1.259,0-2.214-0.438-2.867-1.315c-0.387-0.492-0.66-1.187-0.82-2.083c-0.16-0.896-0.239-2.567-0.239-5.013
		c0-2.444,0.08-4.123,0.239-5.032c0.16-0.91,0.433-1.611,0.82-2.102c0.653-0.851,1.608-1.273,2.867-1.266s2.214,0.428,2.867,1.266
		c0.373,0.478,0.643,1.175,0.81,2.092s0.25,2.598,0.25,5.042C37.226,103.066,37.146,104.737,36.986,105.634z M58.809,105.634
		c-0.161,0.896-0.433,1.591-0.82,2.083c-0.653,0.877-1.608,1.315-2.867,1.315c-1.259,0-2.215-0.438-2.867-1.315
		c-0.387-0.492-0.659-1.187-0.82-2.083c-0.16-0.896-0.239-2.567-0.239-5.013c0-2.444,0.08-4.123,0.239-5.032
		c0.161-0.91,0.433-1.611,0.82-2.102c0.653-0.851,1.608-1.273,2.867-1.266s2.214,0.428,2.867,1.266
		c0.373,0.478,0.644,1.175,0.81,2.092s0.25,2.598,0.25,5.042C59.048,103.066,58.969,104.737,58.809,105.634z"/>
	<path fill="#FFFFFF" d="M88.197,94.294c-0.087-0.272-0.203-0.714-0.349-1.326c-0.146-0.611-0.323-1.093-0.528-1.445
		c-0.206-0.352-0.472-0.768-0.797-1.246c-0.324-0.478-0.693-0.923-1.104-1.335c-1.898-1.9-4.507-2.85-7.826-2.85H66.82v29.058
		h10.773c3.319,0,5.929-0.95,7.826-2.851c0.387-0.385,0.721-0.76,1.007-1.126c0.285-0.365,0.531-0.768,0.737-1.206
		c0.204-0.438,0.386-0.827,0.545-1.166c0.158-0.339,0.281-0.773,0.368-1.306c0.086-0.53,0.161-0.939,0.228-1.225
		c0.066-0.286,0.106-0.745,0.119-1.376c0.014-0.631,0.021-1.073,0.021-1.326v-1.473v-1.477v-1.634v-1.694
		c0-0.173-0.021-0.647-0.061-1.424C88.346,95.09,88.283,94.565,88.197,94.294z M81.16,105.315c-0.1,0.79-0.303,1.404-0.609,1.843
		c-0.733,1.089-1.878,1.635-3.438,1.635h-3.157V92.451h3.157c1.56,0,2.705,0.545,3.438,1.634c0.292,0.439,0.492,1.053,0.6,1.843
		c0.106,0.791,0.16,2.355,0.16,4.693C81.311,102.959,81.26,104.524,81.16,105.315z"/>
	<polygon fill="#FFFFFF" points="126.55,86.093 120.452,86.093 116.646,101.438 111.961,86.093 106.898,86.093 102.195,101.438 
		98.409,86.093 90.935,86.093 98.928,115.15 104.727,115.15 109.43,100.82 114.114,115.15 119.953,115.15 126.55,90.988 
		126.55,115.15 146.32,115.15 146.32,108.793 133.685,108.793 133.685,103.69 144.486,103.69 144.486,97.332 133.685,97.332 
		133.685,92.451 146.32,92.451 146.32,86.093 127.886,86.093 	"/>
	<path fill="#FFFFFF" d="M168.403,94.497c0-2.562-0.805-4.604-2.412-6.125s-3.894-2.281-6.856-2.281h-12.059v29.059h12.656
		c2.672,0,4.85-0.751,6.538-2.253c1.687-1.502,2.531-3.597,2.531-6.282c0-0.958-0.124-1.817-0.368-2.577
		c-0.246-0.758-0.585-1.392-1.017-1.897c-0.432-0.505-0.798-0.878-1.097-1.117c-0.299-0.241-0.667-0.493-1.105-0.761
		C167.339,98.822,168.403,96.899,168.403,94.497z M154.213,92.451h4.469c0.909,0,1.566,0.236,1.975,0.708
		c0.407,0.474,0.611,1.041,0.611,1.703s-0.204,1.229-0.611,1.703c-0.408,0.473-1.064,0.709-1.975,0.709h-4.469V92.451z
		 M161.036,108.037c-0.419,0.504-1.082,0.756-1.987,0.756h-4.836v-5.163h4.836c0.893,0,1.551,0.25,1.978,0.747
		s0.64,1.105,0.64,1.824C161.666,106.922,161.456,107.532,161.036,108.037z"/>
</g>
</svg>

<?xml version="1.0" encoding="UTF-8" standalone="no"?>
<svg width="200px" height="200px" viewBox="0 0 200 200" version="1.1" xmlns="http://www.w3.org/2000/svg" xmlns:xlink="http://www.w3.org/1999/xlink" xmlns:sketch="http://www.bohemiancoding.com/sketch/ns">
    <!-- Generator: Sketch Beta 3.2 (9940) - http://www.bohemiancoding.com/sketch -->
    <title>good-web-bundle-logo</title>
    <desc>Created with Sketch Beta.</desc>
    <defs></defs>
    <g id="Page-1" stroke="none" stroke-width="1" fill="none" fill-rule="evenodd" sketch:type="MSPage">
        <g id="Group" sketch:type="MSLayerGroup" transform="translate(16.000000, 5.000000)">
            <path d="M162.124,49.75 L91.174,49.75 L91.174,82.16 L162.124,82.16 C165.831,82.16 168.865,79.114 168.865,75.393 L168.865,56.516 C168.865,52.796 165.831,49.75 162.124,49.75 L162.124,49.75 Z" id="Shape" fill="#EE2249" sketch:type="MSShapeGroup"></path>
            <path d="M6.741,82.159 L77.691,82.159 L77.691,49.749 L6.741,49.749 C3.033,49.749 0,52.794 0,56.516 L0,75.392 C0,79.113 3.033,82.159 6.741,82.159 L6.741,82.159 Z" id="Shape" fill="#EE2249" sketch:type="MSShapeGroup"></path>
            <path d="M162.124,158.661 L91.174,158.661 L91.174,191.072 L162.124,191.072 C165.831,191.072 168.865,188.026 168.865,184.304 L168.865,165.427 C168.865,161.707 165.831,158.661 162.124,158.661 L162.124,158.661 Z" id="Shape" fill="#EE2249" sketch:type="MSShapeGroup"></path>
            <path d="M0,165.428 L0,184.305 C0,188.027 3.033,191.073 6.741,191.073 L77.691,191.073 L77.691,158.662 L6.741,158.662 C3.033,158.661 0,161.707 0,165.428 L0,165.428 Z" id="Shape" fill="#EE2249" sketch:type="MSShapeGroup"></path>
            <path d="M57.357,38.646 C65.709,41.852 75.307,43.689 83.689,43.689 L83.689,40.291 L83.697,40.287 L83.703,40.291 L83.703,43.689 C92.087,43.689 101.683,41.852 110.035,38.646 C116.883,36.015 125.804,31.327 129.396,23.938 C132.07,18.437 131.236,12.467 127.048,7.135 C123.005,1.989 117.338,-0.009 111.092,1.485 C100.466,4.035 89.837,16.286 83.695,27.104 C77.553,16.288 66.923,4.033 56.297,1.486 C50.05,-0.018 44.383,1.994 40.345,7.136 C36.156,12.468 35.323,18.437 37.997,23.938 C41.588,31.327 50.508,36.015 57.357,38.646 L57.357,38.646 Z M98.2,24.026 C103.533,17.226 109.255,12.555 113.503,11.535 C114.054,11.404 114.561,11.337 115.038,11.337 C116.554,11.337 117.744,12.027 118.918,13.521 C121.12,16.324 120.75,18.078 120.098,19.42 C117.327,25.12 104.958,30.735 92.411,32.657 C93.911,29.982 95.849,27.02 98.2,24.026 L98.2,24.026 Z M48.474,13.521 C49.647,12.027 50.836,11.337 52.355,11.337 C52.829,11.337 53.337,11.404 53.887,11.535 C58.136,12.555 63.857,17.222 69.191,24.022 C71.543,27.02 73.478,29.981 74.979,32.656 C62.433,30.732 50.065,25.118 47.295,19.42 C46.641,18.078 46.27,16.324 48.474,13.521 L48.474,13.521 Z" id="Shape" fill="#EE2249" sketch:type="MSShapeGroup"></path>
            <path d="M144.11,154.446 L168.668,154.446 L168.668,146.548 L152.974,146.548 L152.974,140.212 L166.392,140.212 L166.392,132.313 L152.974,132.313 L152.974,126.249 L168.668,126.249 L168.668,118.353 L144.11,118.353 L144.11,154.446 Z" id="Shape" fill="#FFFFFF" sketch:type="MSShapeGroup"></path>
            <path d="M118.979,118.353 L118.979,154.446 L143.018,154.446 L143.018,146.548 L127.842,146.548 L127.842,118.353 L118.979,118.353 Z" id="Shape" fill="#FFFFFF" sketch:type="MSShapeGroup"></path>
            <path d="M113.141,150.905 C113.62,150.427 114.036,149.961 114.39,149.507 C114.744,149.053 115.049,148.554 115.304,148.01 C115.559,147.465 115.786,146.982 115.983,146.562 C116.18,146.14 116.333,145.601 116.44,144.94 C116.546,144.28 116.641,143.773 116.724,143.418 C116.806,143.064 116.855,142.494 116.871,141.71 C116.888,140.927 116.896,140.377 116.896,140.064 L116.896,138.233 L116.896,136.4 L116.896,134.371 L116.896,132.267 C116.896,132.052 116.871,131.462 116.821,130.497 C116.772,129.53 116.694,128.879 116.588,128.54 C116.481,128.202 116.336,127.654 116.155,126.894 C115.973,126.135 115.756,125.536 115.499,125.099 C115.244,124.661 114.914,124.145 114.51,123.551 C114.107,122.957 113.65,122.405 113.138,121.893 C110.781,119.534 107.54,118.353 103.417,118.353 L90.035,118.353 L90.035,154.448 L103.419,154.448 C107.541,154.446 110.782,153.266 113.141,150.905 L113.141,150.905 Z M98.899,146.548 L98.899,126.249 L102.822,126.249 C104.758,126.249 106.18,126.926 107.092,128.279 C107.454,128.825 107.703,129.588 107.836,130.569 C107.968,131.551 108.035,133.494 108.035,136.398 C108.035,139.303 107.973,141.247 107.847,142.229 C107.723,143.211 107.471,143.973 107.091,144.518 C106.18,145.872 104.756,146.547 102.82,146.547 L98.899,146.547 L98.899,146.548 L98.899,146.548 Z" id="Shape" fill="#FFFFFF" sketch:type="MSShapeGroup"></path>
            <path d="M77.953,136.498 L66.37,118.353 L58.618,118.353 L58.618,154.446 L67.481,154.446 L67.481,136.299 L79.066,154.446 L86.814,154.446 L86.814,118.353 L77.953,118.353 L77.953,136.498 Z" id="Shape" fill="#FFFFFF" sketch:type="MSShapeGroup"></path>
            <path d="M28.635,118.353 L28.635,141.771 C28.635,145.617 29.943,148.74 32.559,151.142 C35.174,153.542 38.409,154.743 42.262,154.743 C46.115,154.743 49.366,153.543 52.016,151.142 C54.666,148.74 55.991,145.618 55.991,141.771 L55.991,118.353 L47.128,118.353 L47.128,141.574 C47.128,143.224 46.69,144.516 45.816,145.448 C44.941,146.381 43.762,146.847 42.276,146.847 C40.791,146.847 39.624,146.38 38.774,145.448 C37.924,144.516 37.499,143.224 37.499,141.574 L37.499,118.353 L28.635,118.353 L28.635,118.353 L28.635,118.353 Z" id="Shape" fill="#FFFFFF" sketch:type="MSShapeGroup"></path>
            <path d="M26.675,128.791 C26.675,125.609 25.676,123.073 23.679,121.186 C21.682,119.297 18.843,118.353 15.163,118.353 L0.187,118.353 L0.187,154.447 L15.907,154.447 C19.224,154.447 21.931,153.514 24.027,151.647 C26.123,149.783 27.171,147.181 27.171,143.844 C27.171,142.654 27.018,141.587 26.713,140.645 C26.407,139.702 25.986,138.917 25.45,138.288 C24.914,137.66 24.46,137.196 24.088,136.899 C23.717,136.601 23.259,136.288 22.714,135.956 C25.354,134.163 26.675,131.776 26.675,128.791 L26.675,128.791 Z M9.049,126.249 L14.601,126.249 C15.729,126.249 16.547,126.543 17.053,127.131 C17.559,127.718 17.813,128.423 17.813,129.244 C17.813,130.067 17.559,130.771 17.053,131.358 C16.547,131.946 15.729,132.24 14.601,132.24 L9.049,132.24 L9.049,126.249 L9.049,126.249 Z M17.526,145.609 C17.005,146.235 16.181,146.547 15.056,146.547 L9.049,146.547 L9.049,140.136 L15.056,140.136 C16.165,140.136 16.984,140.446 17.514,141.063 C18.043,141.68 18.308,142.436 18.308,143.329 C18.308,144.224 18.047,144.983 17.526,145.609 L17.526,145.609 Z" id="Shape" fill="#FFFFFF" sketch:type="MSShapeGroup"></path>
            <path d="M168.403,94.497 C168.403,91.935 167.598,89.893 165.991,88.372 C164.384,86.851 162.097,86.091 159.135,86.091 L147.076,86.091 L147.076,115.15 L159.732,115.15 C162.404,115.15 164.582,114.399 166.27,112.897 C167.957,111.395 168.801,109.3 168.801,106.615 C168.801,105.657 168.677,104.798 168.433,104.038 C168.187,103.28 167.848,102.646 167.416,102.141 C166.984,101.636 166.618,101.263 166.319,101.024 C166.02,100.783 165.652,100.531 165.214,100.263 C167.339,98.822 168.403,96.899 168.403,94.497 L168.403,94.497 Z M154.213,92.451 L158.682,92.451 C159.591,92.451 160.248,92.687 160.657,93.159 C161.064,93.633 161.268,94.2 161.268,94.862 C161.268,95.524 161.064,96.091 160.657,96.565 C160.249,97.038 159.593,97.274 158.682,97.274 L154.213,97.274 L154.213,92.451 L154.213,92.451 Z M161.036,108.037 C160.617,108.541 159.954,108.793 159.049,108.793 L154.213,108.793 L154.213,103.63 L159.049,103.63 C159.942,103.63 160.6,103.88 161.027,104.377 C161.454,104.874 161.667,105.482 161.667,106.201 C161.666,106.922 161.456,107.532 161.036,108.037 L161.036,108.037 Z" id="Shape" fill="#FFFFFF" sketch:type="MSShapeGroup"></path>
            <path d="M126.55,86.093 L120.452,86.093 L116.646,101.438 L111.961,86.093 L106.898,86.093 L102.195,101.438 L98.409,86.093 L90.935,86.093 L98.928,115.15 L104.727,115.15 L109.43,100.82 L114.114,115.15 L119.953,115.15 L126.55,90.988 L126.55,115.15 L146.32,115.15 L146.32,108.793 L133.685,108.793 L133.685,103.69 L144.486,103.69 L144.486,97.332 L133.685,97.332 L133.685,92.451 L146.32,92.451 L146.32,86.093 L127.886,86.093 L126.55,86.093 Z" id="Shape" fill="#FFFFFF" sketch:type="MSShapeGroup"></path>
            <path d="M88.197,94.294 C88.11,94.022 87.994,93.58 87.848,92.968 C87.702,92.357 87.525,91.875 87.32,91.523 C87.114,91.171 86.848,90.755 86.523,90.277 C86.199,89.799 85.83,89.354 85.419,88.942 C83.521,87.042 80.912,86.092 77.593,86.092 L66.82,86.092 L66.82,115.15 L77.593,115.15 C80.912,115.15 83.522,114.2 85.419,112.299 C85.806,111.914 86.14,111.539 86.426,111.173 C86.711,110.808 86.957,110.405 87.163,109.967 C87.367,109.529 87.549,109.14 87.708,108.801 C87.866,108.462 87.989,108.028 88.076,107.495 C88.162,106.965 88.237,106.556 88.304,106.27 C88.37,105.984 88.41,105.525 88.423,104.894 C88.437,104.263 88.444,103.821 88.444,103.568 L88.444,102.095 L88.444,100.618 L88.444,98.984 L88.444,97.29 C88.444,97.117 88.423,96.643 88.383,95.866 C88.346,95.09 88.283,94.565 88.197,94.294 L88.197,94.294 Z M81.16,105.315 C81.06,106.105 80.857,106.719 80.551,107.158 C79.818,108.247 78.673,108.793 77.113,108.793 L73.956,108.793 L73.956,92.451 L77.113,92.451 C78.673,92.451 79.818,92.996 80.551,94.085 C80.843,94.524 81.043,95.138 81.151,95.928 C81.257,96.719 81.311,98.283 81.311,100.621 C81.311,102.959 81.26,104.524 81.16,105.315 L81.16,105.315 Z" id="Shape" fill="#FFFFFF" sketch:type="MSShapeGroup"></path>
            <path d="M64.738,110.088 C65.131,109.33 65.423,108.666 65.615,108.095 C65.807,107.525 65.951,106.693 66.044,105.604 C66.137,104.515 66.183,103.744 66.183,103.292 L66.183,100.62 L66.183,97.951 C66.183,97.498 66.137,96.727 66.044,95.639 C65.951,94.549 65.808,93.718 65.615,93.147 C65.423,92.576 65.131,91.908 64.738,91.144 C64.346,90.381 63.851,89.699 63.254,89.102 C61.074,86.936 58.367,85.85 55.132,85.843 C51.897,85.836 49.19,86.922 47.01,89.102 C46.412,89.7 45.914,90.381 45.515,91.144 C45.117,91.908 44.824,92.576 44.639,93.147 C44.455,93.709 44.315,94.524 44.216,95.587 C44.123,94.524 43.982,93.709 43.792,93.147 C43.6,92.576 43.307,91.908 42.915,91.144 C42.523,90.381 42.028,89.699 41.431,89.102 C39.251,86.936 36.544,85.85 33.308,85.843 C30.073,85.836 27.366,86.922 25.187,89.102 C24.589,89.7 24.091,90.381 23.693,91.144 C23.294,91.908 23.002,92.576 22.816,93.147 C22.655,93.642 22.528,94.345 22.432,95.231 C21.99,92.618 20.877,90.413 19.08,88.623 C17.227,86.776 14.573,85.852 11.118,85.852 C7.917,85.839 5.231,86.921 3.058,89.101 C2.461,89.699 1.965,90.38 1.567,91.143 C1.17,91.907 0.878,92.576 0.692,93.146 C0.506,93.717 0.364,94.547 0.265,95.638 C0.166,96.727 0.116,97.498 0.116,97.95 L0.116,100.62 L0.116,103.291 C0.116,103.743 0.165,104.514 0.265,105.603 C0.365,106.692 0.507,107.523 0.692,108.093 C0.878,108.665 1.169,109.329 1.567,110.087 C1.964,110.844 2.462,111.522 3.058,112.12 C5.217,114.299 7.904,115.388 11.118,115.388 C14.652,115.388 17.469,114.299 19.569,112.12 C20.658,111.004 21.423,109.712 21.861,108.243 C22.097,107.454 22.267,106.526 22.377,105.471 C22.38,105.515 22.385,105.556 22.388,105.603 C22.488,106.692 22.63,107.523 22.815,108.095 C23.001,108.666 23.292,109.329 23.69,110.087 C24.087,110.844 24.585,111.522 25.181,112.12 C27.354,114.299 30.061,115.388 33.302,115.388 C36.543,115.388 39.254,114.299 41.433,112.12 C42.03,111.521 42.525,110.844 42.917,110.087 C43.31,109.329 43.602,108.666 43.794,108.095 C43.983,107.533 44.125,106.718 44.217,105.657 C44.316,106.719 44.456,107.533 44.638,108.095 C44.824,108.666 45.115,109.329 45.513,110.087 C45.91,110.844 46.408,111.522 47.004,112.12 C49.177,114.299 51.884,115.388 55.125,115.388 C58.366,115.388 61.076,114.299 63.255,112.12 C63.852,111.522 64.347,110.846 64.738,110.088 L64.738,110.088 Z M11.118,98.41 L11.118,104.448 L15.403,104.448 L15.403,104.859 C15.403,106.166 15.037,107.177 14.307,107.895 C13.59,108.654 12.526,109.032 11.118,109.032 C9.869,109.018 8.932,108.613 8.308,107.816 C7.922,107.334 7.65,106.637 7.491,105.73 C7.332,104.822 7.252,103.131 7.252,100.662 C7.252,98.191 7.332,96.499 7.491,95.589 C7.651,94.679 7.922,93.978 8.308,93.487 C8.959,92.637 9.895,92.211 11.118,92.211 C12.314,92.211 13.231,92.47 13.868,92.988 C14.506,93.507 14.977,94.336 15.283,95.479 L22.405,95.479 C22.4,95.534 22.393,95.582 22.388,95.639 C22.289,96.728 22.239,97.499 22.239,97.951 L22.239,98.41 L11.118,98.41 L11.118,98.41 Z M36.986,105.634 C36.825,106.53 36.552,107.225 36.166,107.717 C35.513,108.594 34.558,109.032 33.299,109.032 C32.04,109.032 31.085,108.594 30.432,107.717 C30.045,107.225 29.772,106.53 29.612,105.634 C29.452,104.738 29.373,103.067 29.373,100.621 C29.373,98.177 29.453,96.498 29.612,95.589 C29.772,94.679 30.045,93.978 30.432,93.487 C31.085,92.636 32.04,92.214 33.299,92.221 C34.558,92.228 35.513,92.649 36.166,93.487 C36.539,93.965 36.809,94.662 36.976,95.579 C37.143,96.496 37.226,98.177 37.226,100.621 C37.226,103.066 37.146,104.737 36.986,105.634 L36.986,105.634 Z M58.809,105.634 C58.648,106.53 58.376,107.225 57.989,107.717 C57.336,108.594 56.381,109.032 55.122,109.032 C53.863,109.032 52.907,108.594 52.255,107.717 C51.868,107.225 51.596,106.53 51.435,105.634 C51.275,104.738 51.196,103.067 51.196,100.621 C51.196,98.177 51.276,96.498 51.435,95.589 C51.596,94.679 51.868,93.978 52.255,93.487 C52.908,92.636 53.863,92.214 55.122,92.221 C56.381,92.228 57.336,92.649 57.989,93.487 C58.362,93.965 58.633,94.662 58.799,95.579 C58.965,96.496 59.049,98.177 59.049,100.621 C59.048,103.066 58.969,104.737 58.809,105.634 L58.809,105.634 Z" id="Shape" fill="#FFFFFF" sketch:type="MSShapeGroup"></path>
        </g>
    </g>
</svg>
